X: 10251
M: 3/4
L: 1/8
K: D
(uF/G/) |\
z |\
f>ed f>ed | (.e2.A) A3 | f>ed f>ed | (.g2.e) e3 |\
f>ed f>ed | g>fe Ha2ug | f>ed A>dc | (.d2.D) "_D.C."D2 |]


